static/img/kroki/33d2b99627a7bf501523c449857ac86a.svg

<?xml version="1.0" encoding="us-ascii" standalone="no"?><svg xmlns="http://www.w3.org/2000/svg" xmlns:xlink="http://www.w3.org/1999/xlink" contentStyleType="text/css" height="252px" preserveAspectRatio="none" style="width:371px;height:252px;" version="1.1" viewBox="0 0 371 252" width="371px" zoomAndPan="magnify"><defs/><g><!--class azure_network_subnet--><g id="elem_azure_network_subnet"><rect codeLine="23" fill="#3D176E" height="39.7891" id="azure_network_subnet" rx="2.5" ry="2.5" style="stroke:#000D19;stroke-width:0.5;" width="233" x="69" y="7"/><ellipse cx="84" cy="26.8945" fill="#ADD1B2" rx="11" ry="11" style="stroke:#181818;stroke-width:1.0;"/><path d="M86.9688,32.5352 Q86.3906,32.832 85.75,32.9727 Q85.1094,33.1289 84.4063,33.1289 Q81.9063,33.1289 80.5781,31.4883 Q79.2656,29.832 79.2656,26.707 Q79.2656,23.582 80.5781,21.9258 Q81.9063,20.2695 84.4063,20.2695 Q85.1094,20.2695 85.75,20.4258 Q86.4063,20.582 86.9688,20.8789 L86.9688,23.5977 Q86.3438,23.0195 85.75,22.7539 Q85.1563,22.4727 84.5313,22.4727 Q83.1875,22.4727 82.5,23.5508 Q81.8125,24.6133 81.8125,26.707 Q81.8125,28.8008 82.5,29.8789 Q83.1875,30.9414 84.5313,30.9414 Q85.1563,30.9414 85.75,30.6758 Q86.3438,30.3945 86.9688,29.8164 L86.9688,32.5352 Z " fill="#000000"/><text fill="#D9B8FF" font-family="Helvetica" font-size="17" lengthAdjust="spacing" textLength="191" x="103" y="32.7798">azure_network_subnet</text></g><!--class azure_network_virtual_appliance--><g id="elem_azure_network_virtual_appliance"><rect codeLine="26" fill="#3D176E" height="39.7891" id="azure_network_virtual_appliance" rx="2.5" ry="2.5" style="stroke:#000D19;stroke-width:0.5;" width="319" x="26" y="106.79"/><ellipse cx="41" cy="126.6845" fill="#ADD1B2" rx="11" ry="11" style="stroke:#181818;stroke-width:1.0;"/><path d="M43.9688,132.3252 Q43.3906,132.622 42.75,132.7627 Q42.1094,132.9189 41.4063,132.9189 Q38.9063,132.9189 37.5781,131.2783 Q36.2656,129.622 36.2656,126.497 Q36.2656,123.372 37.5781,121.7158 Q38.9063,120.0595 41.4063,120.0595 Q42.1094,120.0595 42.75,120.2158 Q43.4063,120.372 43.9688,120.6689 L43.9688,123.3877 Q43.3438,122.8095 42.75,122.5439 Q42.1563,122.2627 41.5313,122.2627 Q40.1875,122.2627 39.5,123.3408 Q38.8125,124.4033 38.8125,126.497 Q38.8125,128.5908 39.5,129.6689 Q40.1875,130.7314 41.5313,130.7314 Q42.1563,130.7314 42.75,130.4658 Q43.3438,130.1845 43.9688,129.6064 L43.9688,132.3252 Z " fill="#000000"/><text fill="#D9B8FF" font-family="Helvetica" font-size="17" lengthAdjust="spacing" textLength="277" x="60" y="132.5698">azure_network_virtual_appliance</text></g><!--class azure_network_virtual_appliance_sku--><g id="elem_azure_network_virtual_appliance_sku"><rect codeLine="29" fill="#3D176E" height="39.7891" id="azure_network_virtual_appliance_sku" rx="2.5" ry="2.5" style="stroke:#000D19;stroke-width:0.5;" width="357" x="7" y="206.58"/><ellipse cx="22" cy="226.4745" fill="#ADD1B2" rx="11" ry="11" style="stroke:#181818;stroke-width:1.0;"/><path d="M24.9688,232.1152 Q24.3906,232.412 23.75,232.5527 Q23.1094,232.7089 22.4063,232.7089 Q19.9063,232.7089 18.5781,231.0683 Q17.2656,229.412 17.2656,226.287 Q17.2656,223.162 18.5781,221.5058 Q19.9063,219.8495 22.4063,219.8495 Q23.1094,219.8495 23.75,220.0058 Q24.4063,220.162 24.9688,220.4589 L24.9688,223.1777 Q24.3438,222.5995 23.75,222.3339 Q23.1563,222.0527 22.5313,222.0527 Q21.1875,222.0527 20.5,223.1308 Q19.8125,224.1933 19.8125,226.287 Q19.8125,228.3808 20.5,229.4589 Q21.1875,230.5214 22.5313,230.5214 Q23.1563,230.5214 23.75,230.2558 Q24.3438,229.9745 24.9688,229.3964 L24.9688,232.1152 Z " fill="#000000"/><text fill="#D9B8FF" font-family="Helvetica" font-size="17" lengthAdjust="spacing" textLength="315" x="41" y="232.3598">azure_network_virtual_appliance_sku</text></g><!--link azure_network_subnet to azure_network_virtual_appliance--><g id="link_azure_network_subnet_azure_network_virtual_appliance"><path codeLine="32" d="M185.5,47.22 C185.5,64.36 185.5,83.27 185.5,100.41 " fill="none" id="azure_network_subnet-to-azure_network_virtual_appliance" style="stroke:#1A83AF;stroke-width:2.0;"/><polygon fill="#1A83AF" points="185.5,106.41,189.5,97.41,185.5,101.41,181.5,97.41,185.5,106.41" style="stroke:#1A83AF;stroke-width:2.0;"/></g><!--link azure_network_virtual_appliance to azure_network_virtual_appliance_sku--><g id="link_azure_network_virtual_appliance_azure_network_virtual_appliance_sku"><path codeLine="33" d="M185.5,147.01 C185.5,164.15 185.5,183.06 185.5,200.2 " fill="none" id="azure_network_virtual_appliance-to-azure_network_virtual_appliance_sku" style="stroke:#1A83AF;stroke-width:2.0;"/><polygon fill="#1A83AF" points="185.5,206.2,189.5,197.2,185.5,201.2,181.5,197.2,185.5,206.2" style="stroke:#1A83AF;stroke-width:2.0;"/></g><!--SRC=[bP31Qi9048RlUOe5pu9fQDLB8HMalKYflPKI9jbPNPBiXjc9egNlNbFRiatKu6tP_-EVRsQj9GeiAzw94iiKoGKkrwO2WbB4H7OxiuKbCL0AL3HkXtDhk1TOG8dY4OiDiiwWJRokTPORT4xSUD43PFcAR6taiPu9Z3j4QDYZPWKu5pEJJcj6JqPEqubIRR9TEeXaEBx33cP98lqWez58XjCsqZlgujv_n5BlKOJ-qHQMiQFP6V5DNRHi24-oi-XlVjRn6QJKPYLklR-NenCPf7__opL8ksre1ONpnpX6Gikx2cUThN0waMfy4duw1mTPSpe1-vemCSXRItdYwlJm51z1y7aotsZY6ee4gghGO3Ay0arSNX_napE7RuCmdaJn_7rutrSLz5bTKzPu1Ly0]--></g></svg>

<svg xmlns="http://www.w3.org/2000/svg" width="371" height="252" viewBox="0 0 371 252"><rect width="233" height="39.789" x="69" y="7" fill="#3D176E" rx="2.5" ry="2.5" style="stroke:#000d19;stroke-width:.5"/><circle cx="84" cy="26.895" r="11" fill="#ADD1B2" style="stroke:#181818;stroke-width:1"/><path d="M86.969 32.535q-.578.297-1.219.438-.64.156-1.344.156-2.5 0-3.828-1.64-1.312-1.657-1.312-4.782t1.312-4.781q1.328-1.656 3.828-1.656.703 0 1.344.156.656.156 1.219.453v2.719q-.625-.578-1.219-.844-.594-.281-1.219-.281-1.344 0-2.031 1.078-.687 1.062-.687 3.156t.687 3.172q.688 1.062 2.031 1.062.625 0 1.219-.265.594-.281 1.219-.86z"/><text x="103" y="32.78" fill="#D9B8FF" font-family="Helvetica" font-size="17" textLength="191">azure_network_subnet</text><rect width="319" height="39.789" x="26" y="106.79" fill="#3D176E" rx="2.5" ry="2.5" style="stroke:#000d19;stroke-width:.5"/><circle cx="41" cy="126.684" r="11" fill="#ADD1B2" style="stroke:#181818;stroke-width:1"/><path d="M43.969 132.325q-.578.297-1.219.438-.64.156-1.344.156-2.5 0-3.828-1.64-1.312-1.657-1.312-4.782t1.312-4.781q1.328-1.656 3.828-1.656.703 0 1.344.156.656.156 1.219.453v2.719q-.625-.579-1.219-.844-.594-.281-1.219-.281-1.343 0-2.031 1.078-.687 1.062-.687 3.156t.687 3.172q.688 1.062 2.031 1.062.625 0 1.219-.265.594-.281 1.219-.86z"/><text x="60" y="132.57" fill="#D9B8FF" font-family="Helvetica" font-size="17" textLength="277">azure_network_virtual_appliance</text><rect width="357" height="39.789" x="7" y="206.58" fill="#3D176E" rx="2.5" ry="2.5" style="stroke:#000d19;stroke-width:.5"/><circle cx="22" cy="226.475" r="11" fill="#ADD1B2" style="stroke:#181818;stroke-width:1"/><path d="M24.969 232.115q-.578.297-1.219.438-.64.156-1.344.156-2.5 0-3.828-1.64-1.312-1.657-1.312-4.782t1.312-4.781q1.328-1.656 3.828-1.656.703 0 1.344.156.656.156 1.219.453v2.719q-.625-.578-1.219-.844-.594-.281-1.219-.281-1.343 0-2.031 1.078-.687 1.062-.687 3.156t.687 3.172q.688 1.062 2.031 1.062.625 0 1.219-.265.594-.281 1.219-.86z"/><text x="41" y="232.36" fill="#D9B8FF" font-family="Helvetica" font-size="17" textLength="315">azure_network_virtual_appliance_sku</text><path fill="none" d="M185.5 47.22v53.19" style="stroke:#1a83af;stroke-width:2"/><path fill="#1A83AF" d="m185.5 106.41 4-9-4 4-4-4z" style="stroke:#1a83af;stroke-width:2"/><path fill="none" d="M185.5 147.01v53.19" style="stroke:#1a83af;stroke-width:2"/><path fill="#1A83AF" d="m185.5 206.2 4-9-4 4-4-4z" style="stroke:#1a83af;stroke-width:2"/></svg>
